frontend/css/icons/health.svg

<?xml version="1.0" encoding="UTF-8" standalone="no"?>
<svg viewBox="0 0 32 32" version="1.1" xmlns="http://www.w3.org/2000/svg" xmlns:xlink="http://www.w3.org/1999/xlink">
    <!-- Generator: Sketch 46.1 (44463) - http://www.bohemiancoding.com/sketch -->
    <title>icons/health</title>
    <desc>Created with Sketch.</desc>
    <defs></defs>
    <g id="Symbols" stroke="none" stroke-width="1" fill="none" fill-rule="evenodd">
        <g id="icons/health">
            <g id="Group-8">
                <circle id="Oval-2-Copy-2" fill="#FAB400" cx="16" cy="16" r="16"></circle>
                <path d="M22.7260948,13.6789217 L18.2010833,18.2027332 L13.7984668,13.7989167 L18.3234782,9.2751052 C18.9102538,8.6871297 19.6926212,8.36194325 20.5229866,8.36194325 C21.3545519,8.36194325 22.1381193,8.6871297 22.7260948,9.2751052 C23.9392442,10.4882546 23.9392442,12.4645723 22.7260948,13.6789217 M23.6896546,8.31154535 C22.8148911,7.43798175 21.6689388,7 20.5229866,7 C19.3770343,7 18.232282,7.43798175 17.3587184,8.31154535 L12.8349069,12.8353568 L8.31109541,17.3579684 C6.56276826,19.1038956 6.56276826,21.9405774 8.31229536,23.6889046 C10.0582226,25.4360318 12.8949044,25.4360318 14.6420316,23.6889046 L18.2010833,20.1298529 L23.6896546,14.6424815 C25.4367818,12.8941544 25.4367818,10.0574726 23.6896546,8.31154535" id="Page-1" fill="#FFFFFF"></path>
            </g>
        </g>
    </g>
</svg>

<!-- Generated by IcoMoon.io -->
<svg version="1.1" xmlns="http://www.w3.org/2000/svg" viewBox="0 0 32 32">
<title>health</title>
<path d="M16 32c-8.837 0-16-7.163-16-16s7.163-16 16-16c8.837 0 16 7.163 16 16s-7.163 16-16 16zM22.726 13.679l-4.525 4.524-4.403-4.404 4.525-4.524c0.587-0.588 1.369-0.913 2.2-0.913 0.832 0 1.615 0.325 2.203 0.913 1.213 1.213 1.213 3.189 0 4.404zM23.69 8.312c-0.875-0.874-2.021-1.312-3.167-1.312s-2.291 0.438-3.164 1.312l-9.048 9.046c-1.748 1.746-1.748 4.583 0.001 6.331 1.746 1.747 4.583 1.747 6.33 0l9.048-9.046c1.747-1.748 1.747-4.585 0-6.331z"></path>
</svg>
